X: 1
T: Cliffs of Moher
O: trad. Ireland
R: jig
S: Fiddle Hell Online 2021-04-15  Andy & Dave Reiner
N: basic version for workshop "Teaching How To Make Irish Fiddle Tunes Come Alive"
Z: 2021 John Chambers <jc:trillian.mit.edu>
M: 6/8
L: 1/8
K: Ador	% Am in original, with sharps on most of the F notes.
|:\
a2a bag | eaf ged | c2A BAG | EFG ABd |
eaa bag | eaf ged | c2A BAG | EFG A3 :|
|:\
e2e dBA | e=fe dBA | G2B dBA | GAB dBd |
[1 e2e dBA | e=fe dBA | G2B dBA | EFG A3 :|
[2 e=fe dee | cee Bee | EFG BAG | EDB, A,3 |]
